quarto/img/logo-twitter.svg

<svg xmlns="http://www.w3.org/2000/svg" xmlns:xlink="http://www.w3.org/1999/xlink" version="1.1" width="256" height="256" viewBox="0 0 256 256" xml:space="preserve">
<g style="stroke: none; stroke-width: 0; stroke-dasharray: none; stroke-linecap: butt; stroke-linejoin: miter; stroke-miterlimit: 10; fill: none; fill-rule: nonzero; opacity: 1;" transform="translate(1.4065934065934016 1.4065934065934016) scale(2.81 2.81)">
	<path d="M 17.884 19.496 L 38.925 47.63 L 17.751 70.504 h 4.765 l 18.538 -20.027 l 14.978 20.027 h 16.217 L 50.024 40.788 l 19.708 -21.291 h -4.765 L 47.895 37.94 L 34.101 19.496 H 17.884 z M 24.892 23.006 h 7.45 L 65.24 66.993 h -7.45 L 24.892 23.006 z" style="stroke: none; stroke-width: 1; stroke-dasharray: none; stroke-linecap: butt; stroke-linejoin: miter; stroke-miterlimit: 10; fill: rgb(0,0,0); fill-rule: nonzero; opacity: 1;" transform=" matrix(1 0 0 1 0 0) " stroke-linecap="round"/>
	<path d="M 45 90 C 20.187 90 0 69.813 0 45 C 0 20.187 20.187 0 45 0 c 24.813 0 45 20.187 45 45 C 90 69.813 69.813 90 45 90 z M 45 3 C 21.841 3 3 21.841 3 45 c 0 23.159 18.841 42 42 42 c 23.159 0 42 -18.841 42 -42 C 87 21.841 68.159 3 45 3 z" style="stroke: none; stroke-width: 1; stroke-dasharray: none; stroke-linecap: butt; stroke-linejoin: miter; stroke-miterlimit: 10; fill: rgb(0,0,0); fill-rule: nonzero; opacity: 1;" transform=" matrix(1 0 0 1 0 0) " stroke-linecap="round"/>
</g>
</svg>

<svg xmlns="http://www.w3.org/2000/svg" version="1.1" width="256" height="256" viewBox="0 0 252.89999 252.89999" xml:space="preserve" id="svg8" preserveAspectRatio="none"><defs id="defs12" />
<g style="opacity:1;fill:none;fill-rule:nonzero;stroke:none;stroke-width:0;stroke-linecap:butt;stroke-linejoin:miter;stroke-miterlimit:10;stroke-dasharray:none" transform="scale(2.81)" id="g6">
	<path d="M 17.884,19.496 38.925,47.63 17.751,70.504 h 4.765 L 41.054,50.477 56.032,70.504 H 72.249 L 50.024,40.788 69.732,19.497 H 64.967 L 47.895,37.94 34.101,19.496 Z m 7.008,3.51 h 7.45 L 65.24,66.993 h -7.45 z" style="opacity:1;fill:#000000;fill-rule:nonzero;stroke:none;stroke-width:1;stroke-linecap:butt;stroke-linejoin:miter;stroke-miterlimit:10;stroke-dasharray:none" stroke-linecap="round" id="path2" />
	<path d="M 45,90 C 20.187,90 0,69.813 0,45 0,20.187 20.187,0 45,0 69.813,0 90,20.187 90,45 90,69.813 69.813,90 45,90 Z M 45,3 C 21.841,3 3,21.841 3,45 3,68.159 21.841,87 45,87 68.159,87 87,68.159 87,45 87,21.841 68.159,3 45,3 Z" style="opacity:1;fill:#000000;fill-rule:nonzero;stroke:none;stroke-width:1;stroke-linecap:butt;stroke-linejoin:miter;stroke-miterlimit:10;stroke-dasharray:none" stroke-linecap="round" id="path4" />
</g>
</svg>
